X:1
T:Fairview, 77.77 D
T:Fairview, 77.77 D
T:William Lesley Mason, 1899
T:Public Domain Courtesy of the Cyber Hymnal™
C:William Lesley Mason, 1899
Z:Public Domain
Z:Courtesy of the Cyber Hymnal™
%%score ( 1 2 ) 3
L:1/8
Q:1/4=95
M:3/4
K:F
V:1 treble 
V:2 treble 
V:3 bass 
V:1
 [CF]>[CF] | [CF]3 C [CF][FA] | [Fc]3 z [Fd]>[Fd] | [Fc]3 [FA] [EG][EB] | [FA]3 z [FA]>[FA] | %5
 [FA]3 [EG] [DF][^CE] | [DF]3 z [^CE]>[CA] | [E^c]3 [^CA] [D=B]>[DB] | [^CA]3 z [FA]>[FA] | %9
 [FA]3 [EG] [Ec]>[Ec] | [Fc]3 z [FA]>[FA] | [FA]3 [DF] [FA][Fd] | [G^c]3 z [GA]>[GA] | %13
 [Af]3 [Af] [ce][Bd] | [Ac]3 z [Fd]>[Fd] | [Fc]3 [FA] [GB][EG] | F4 |] %17
V:2
 x2 | x3 C x2 | x6 | x6 | x6 | x6 | x6 | x6 | x6 | x6 | x6 | x6 | x6 | x6 | x6 | x6 | F4 |] %17
V:3
 [F,A,]>[F,A,] | [F,A,]3 [F,A,] [F,A,][F,C] | [F,A,]3 z [F,B,]>[F,B,] | [F,A,]3 [F,C] [C,C][C,C] | %4
 [F,C]3 z [D,D]>[D,D] | [D,D]3 [D,B,] [D,A,][A,,A,] | [D,A,]3 z [E,A,]>[E,A,] | %7
 [E,A,]3 [E,A,] [E,^G,]>[E,G,] | [A,,A,]3 z [F,C]>[F,C] | [C,C]3 [C,C] [C,G,]>[C,B,] | %10
 [F,A,]3 z [F,C]>[F,C] | [D,D]3 [D,A,] [D,D][A,D] | [A,E]3 z [A,,A,]>[A,,A,] | %13
 [D,A,]3 [D,A,] [B,,B,][D,B,] | [F,A,]3 z [B,,B,]>[B,,B,] | [C,A,]3 [C,C] [C,G,][C,B,] | [F,A,]4 |] %17

